X:490
T:Ben Lennon's Barndance #2
R:reel
Z:Alf Warnock - alf0@rogers.com - http://members.rogers.com/alf0
Z:Learned from Mick Moloney, Gaelic Roots 2002
M:4/4
L:1/8
K:G
ga|:"G"b2ba g2ge|dBGA B3A|GABc defg|"D7"agfe d2ga|
"G"b2ba g2ge|dBGA B3A|Ggfe "D7"dcBA|[1 "G"G2B2 G2ga :|[2 "G"G2B2 G4|
|: "C"e2e2 "D7"d2d2|"G"G2G2 G3D|GABc defg|"D7"agfe d4|
"C"e2e2 "D7"d2d2|"G"G2G2 G3D|GABc defg|"D7"a2f2 "G"g4 :|
